X:1
T:A minor              Jacob French, 1789
T:Isaac Watts, 1717 (Psalm 90, Part 1)              88. 88. (L. M.)
T:Italy
T:Transcribed from  The New American Melody, 1789.
%%score [ 1 2 3 4 ]
L:1/8
Q:1/4=75
M:2/2
K:C
V:1 treble nm="Tr." snm="Tr."
V:2 treble nm="C." snm="C."
V:3 treble-8 nm="T." snm="T."
V:4 bass nm="B." snm="B."
V:1
"^1. Teach us, O Lord, how frail is man; And kindly lengthen out our span,  Till   a  wise  care  of      pi       –      e – ty     Fit  us to  die, and  dwell with thee." e2 | %1
 dc B2 c2 B2 | A2 BA ^G2 G2 | A2 B2 c2 A2 | A2 ^G2 A2 A2 | z8 | z8 | A2 Bc B2 ce | dc B2 A4 |] %9
V:2
"^2. Through every age,  e ternal   God,  Thou art our rest, our safe abode;  High was thy throne ere heaven was made, Or earth thy humble footstool laid." E2 | %1
 F2 E2 E2 E2 | E2 F2 E2 E2 | E2 G2 G2 F2 | F2 E2 E2 E2 | C2 D2 E2 FE | DE/F/GF E4 | E2 ED E2 G2 | %8
 F2 E2 E4 |] %9
V:3
"^3. Long had thou reigned ere time began, Or dust was fashioned to a man; And long thy  kingdom  shall     en–dure When earth and time shall be no more." A2 | %1
 A2 ^G2 A2 B2 | c2 dc B2 B2 | c2 d2 e2 c2 | dc B2 A2 A2 | z8 | z8 | c2 BA G2 E2 | A2 ^G2 A4 |] %9
V:4
"^______________________________________________\nTempo as suggested by Jones (1998)." [A,,A,]2 | %1
 D,2 E,2 A,,2 E,2 | A,2 D,2 E,2 E,2 | [A,,A,]2 [G,,G,]2 C,2 F,2 | D,2 E,2 A,,2 E,2 | %5
 A,2 G,F, E,2 D,C, | B,,A,,/B,,/C,D, E,4 | A,2 G,F, E,2 C,2 | D,2 E,2 A,,4 |] %9

